flaticon/constructions/paint-brush-11.svg

<svg xmlns="http://www.w3.org/2000/svg" width="32" height="32" viewBox="0 0 24 24">
    <path d="M 10.1875 20.398438 C 10.1875 21.28125 10.90625 22 11.785156 22 C 12.667969 22 13.386719 21.28125 13.386719 20.398438 C 13.386719 19.519531 12.667969 18.800781 11.785156 18.800781 C 10.90625 18.800781 10.1875 19.519531 10.1875 20.398438 Z M 11.785156 19.601562 C 12.226562 19.601562 12.585938 19.960938 12.585938 20.398438 C 12.585938 20.839844 12.226562 21.199219 11.785156 21.199219 C 11.347656 21.199219 10.988281 20.839844 10.988281 20.398438 C 10.988281 19.960938 11.347656 19.601562 11.785156 19.601562 Z M 11.785156 19.601562"/>
    <path d="M 16.90625 0.398438 C 16.746094 0.160156 16.464844 0 16.1875 0.0390625 C 14.90625 0.238281 13.988281 0.839844 13.464844 1.800781 C 13.265625 1.320312 12.945312 0.839844 12.585938 0.480469 C 12.308594 0.199219 11.785156 0 11.386719 0 L 8.027344 0 C 7.667969 0 7.308594 0.199219 7.148438 0.480469 C 6.945312 0.800781 6.945312 1.199219 7.105469 1.519531 C 7.550781 2.300781 7.757812 3.496094 7.785156 5.199219 C 7.546875 5.203125 7.386719 5.359375 7.386719 5.601562 L 7.386719 9.199219 C 7.386719 9.441406 7.546875 9.601562 7.785156 9.601562 L 7.785156 13.199219 C 7.785156 13.761719 8.066406 14.28125 8.507812 14.601562 C 8.785156 14.761719 8.945312 15.078125 8.90625 15.398438 L 8.226562 22.761719 C 8.1875 23.078125 8.308594 23.398438 8.546875 23.640625 C 8.785156 23.878906 9.105469 24 9.425781 24 L 14.148438 24 C 14.507812 24 14.785156 23.878906 14.988281 23.640625 C 15.1875 23.398438 15.308594 23.078125 15.308594 22.71875 L 14.625 15.398438 C 14.625 15.078125 14.746094 14.761719 15.027344 14.601562 C 15.507812 14.28125 15.785156 13.761719 15.785156 13.199219 L 15.785156 9.601562 C 16.027344 9.601562 16.1875 9.398438 16.1875 9.199219 L 16.1875 5.601562 C 16.1875 5.359375 16.027344 5.199219 15.785156 5.199219 L 15.78125 5.199219 C 15.789062 4.390625 15.914062 2.523438 16.867188 1.199219 C 17.027344 0.960938 17.066406 0.640625 16.90625 0.398438 Z M 12.308594 6 L 15.386719 6 L 15.386719 8.800781 L 8.1875 8.800781 L 8.1875 6 Z M 14.988281 13.199219 C 14.988281 13.480469 14.828125 13.761719 14.585938 13.921875 C 14.066406 14.28125 13.785156 14.878906 13.867188 15.480469 L 14.546875 22.800781 C 14.546875 22.878906 14.507812 23 14.425781 23.078125 C 14.347656 23.160156 14.265625 23.199219 14.148438 23.199219 L 9.425781 23.199219 C 9.308594 23.199219 9.226562 23.160156 9.148438 23.078125 C 9.066406 23 9.027344 22.878906 9.027344 22.800781 L 9.707031 15.480469 C 9.785156 14.839844 9.507812 14.28125 8.988281 13.921875 C 8.746094 13.761719 8.585938 13.480469 8.585938 13.199219 L 8.585938 12.800781 L 9.785156 12.800781 C 10.027344 12.800781 10.1875 12.601562 10.1875 12.398438 C 10.1875 12.160156 10.027344 12 9.785156 12 L 8.585938 12 L 8.585938 11.199219 L 10.585938 11.199219 C 10.828125 11.199219 10.988281 11.039062 10.988281 10.800781 C 10.988281 10.558594 10.828125 10.398438 10.585938 10.398438 L 8.585938 10.398438 L 8.585938 9.601562 L 14.988281 9.601562 Z M 14.988281 5.199219 L 8.585938 5.199219 C 8.546875 3.359375 8.308594 2.039062 7.828125 1.160156 C 7.785156 1.039062 7.828125 0.960938 7.828125 0.921875 C 7.867188 0.878906 7.90625 0.800781 8.027344 0.800781 L 11.386719 0.800781 C 11.585938 0.800781 11.90625 0.921875 12.027344 1.039062 C 12.46875 1.519531 12.988281 2.441406 12.988281 3.601562 C 12.988281 3.800781 13.1875 4 13.386719 4 C 13.585938 4.039062 13.785156 3.839844 13.785156 3.640625 C 13.867188 2.078125 14.667969 1.160156 16.105469 0.878906 C 15.105469 2.398438 14.988281 4.359375 14.988281 5.199219 Z M 14.988281 5.199219"/>
</svg>

<svg xmlns="http://www.w3.org/2000/svg" width="32" height="32" viewBox="0 0 24 24">
    <path d="M10.188 20.398c0 .883.718 1.602 1.597 1.602.883 0 1.602-.719 1.602-1.602 0-.878-.719-1.597-1.602-1.597-.879 0-1.598.719-1.598 1.597zm1.597-.796c.442 0 .8.359.8.796 0 .442-.358.801-.8.801a.801.801 0 0 1-.797-.8.8.8 0 0 1 .797-.797zm0 0"/>
    <path d="M16.906.398C16.746.16 16.465 0 16.188.04c-1.282.2-2.2.8-2.723 1.762-.2-.48-.52-.961-.88-1.32C12.31.198 11.786 0 11.388 0h-3.36c-.359 0-.718.2-.879.48-.203.32-.203.72-.043 1.04.446.78.653 1.976.68 3.68-.238.003-.398.16-.398.402v3.597c0 .242.16.403.398.403v3.597c0 .563.281 1.082.723 1.403.277.16.437.476.398.796l-.68 7.364c-.039.316.083.636.32.879.24.238.56.359.88.359h4.722c.36 0 .637-.121.84-.36.2-.242.32-.562.32-.921l-.683-7.32c0-.32.121-.637.402-.797.48-.32.758-.84.758-1.403V9.602a.404.404 0 0 0 .402-.403V5.602c0-.243-.16-.403-.402-.403h-.004c.008-.808.133-2.676 1.086-4 .16-.238.2-.558.04-.8zM12.31 6h3.078v2.8h-7.2V6zm2.68 7.2c0 .28-.16.562-.403.722-.52.36-.8.957-.719 1.558l.68 7.32c0 .079-.04.2-.121.278a.353.353 0 0 1-.278.121H9.426c-.117 0-.2-.039-.278-.12a.418.418 0 0 1-.12-.278l.679-7.32c.078-.641-.2-1.2-.719-1.56a.894.894 0 0 1-.402-.722v-.398h1.2c.241 0 .402-.2.402-.403 0-.238-.16-.398-.403-.398h-1.2v-.8h2c.243 0 .403-.16.403-.4 0-.241-.16-.402-.402-.402h-2v-.796h6.402zm0-8H8.585c-.04-1.84-.277-3.16-.758-4.04-.043-.12 0-.2 0-.238.04-.043.078-.121.2-.121h3.359c.199 0 .52.12.64.238.442.48.961 1.402.961 2.563 0 .199.2.398.399.398.199.04.398-.16.398-.36.082-1.562.883-2.48 2.32-2.761-1 1.52-1.117 3.48-1.117 4.32zm0 0"/>
</svg>
